X: 14692
T: Gan Ainm
R: hornpipe
M: 4/4
K: Dmajor
A^GAF DFAd|dcec ABAG|GFAF FEGE|edfe dcBA|
ABAF DFAd|dcec Aceg|{a}gf{a}fe {a}eddc|dfec d4|
A^GAF DFAd|dcec ABAG|GFAF FEGE|edfe dcBA|
ABAF DFAd|dcec Aceg|{a}gf{a}fe {a}eddc|dfec d4|
e^dec Aceg|{a}gfaf d3 c|BdAd BdAd|Bdgf edcB|
(3ABA {d}AF DFAd|dcec Aceg|{a}gf{a}fe {a}eddc|dfec d3f|
efec Aceg|{a}gfaf d3 c|(3BcB Ad BdAd|Bdgf edcB|
A^GAF DFAd|dc{g}ec Aceg|{a}gf{a}fe {a}eddc|dfec d4||

